X: 4061
T: Blessings Of Gold
R: reel
M: 4/4
K: Dmajor
|:dB|A3F ABdc|B3A B2 de|fafe d2 BA|FABd efdB|
A3F ABdc|B3A B2 de|faba f2 ed|BA (3Bcd e2:|
|:de|fa a2 bafe|faaf d3e|fa a2 bafe|dBBA B2 de|
fa a2 bafe|faba f2 ed|BA (3Bcd efed|BA (3Bcd ef:|

